!!!!SEGMENT: pl-cz--ii-15--009_szlagorski-walenty--kotylion.krn
!!!cenid: 18xx:1159
!!!COM: Szlagórski, Walenty
!!!COM-rismid: pe30111815
!!!CDT: 1801-1863/07/16
!!!CNT: Polish
!!!OTL: Kotylion
!!!PDT:
!!!AGN: Secular; Cotillion
!!!SMS-siglum: PL-CZ
!!!SMS-shelfmark: II-15
!!!SMS-shelfwork: 009 W
!!!SMS-variant:
!!!SMS-altvar:
!!!NIFC-rismid: 300001530
!!!URL-scan: http://repozytorium.nifc.pl/skany/pl-cz-nut--ii-15
!!!ONB-nifc: UWAGA: części: 1. Mazur (Morawski), 2. Mazur (Szlagórski), 3. Walc 1, 4. Walc 2, 5. Walc 3, 6. Walc 4, 7. Walc 5, 8. Mazur (Studziński), 9. Kotylion (Szlagórski), 10. Gallop (Szlagórski), 11. Mazur (Smacierzyński). UWAGA: dalsza część partii Basso z tyłu okładki
!!!AIN: 2 clars 2 cor 2 empty 2 flt 2 violn
!!!key:
**kern	**dynam	**kern	**dynam	**kern	**kern	**dynam	**kern	**kern	**dynam	**kern	**dynam	**kern	**kern	**kern
*part10	*part10	*part9	*part9	*part8	*part7	*part7	*part6	*part5	*part5	*part4	*part4	*part3	*part2	*part1
*staff10	*	*staff9	*	*staff8	*staff7	*	*staff6	*staff5	*	*staff4	*	*staff3	*staff2	*staff1
*Iempty	*	*Ivioln	*	*Ivioln	*Iempty	*	*Icor	*Icor	*	*Iclars	*	*Iclars	*Iflt	*Iflt
*I"Baſso	*	*I"Violino 2do	*	*I"Violino 1mo	*I"Clarino in A	*	*I"Corno 2do in D	*I"Corno 1mo in A	*	*I"Clarinetto 2do in A	*	*I"Clarinetto 1mo in C	*I"Flauto Secundo	*I"Flauto Primo
*I'b	*	*I'vn 2	*	*I'vn 1	*I'clno	*	*I'cor 2	*I'cor 1	*	*I'cl 2	*	*I'cl 1	*I'fl 2	*I'fl 1
*clefF4	*	*clefG2	*	*clefG2	*clefG2	*	*clefG2	*clefG2	*	*clefG2	*	*clefG2	*clefG2	*clefG2
*ITrd0c0	*	*	*	*	*ITrd2c3	*	*ITrd6c10	*ITrd2c3	*	*ITrd2c3	*	*	*	*
*k[f#c#g#]	*	*k[f#c#g#]	*	*k[f#c#g#]	*k[f#c#g#]	*	*k[f#c#g#]	*k[f#c#g#]	*	*k[f#c#g#]	*	*k[f#c#g#]	*k[f#c#g#]	*k[f#c#g#]
*A:	*	*A:	*	*A:	*A:	*	*A:	*A:	*	*A:	*	*A:	*A:	*A:
*M3/8	*	*M3/8	*	*M3/8	*M3/8	*	*M3/8	*M3/8	*	*M3/8	*	*M3/8	*M3/8	*M3/8
*>[A,B,B1,B,B2,C,C,D,D]	*	*>[A,B,B1,B,B2,C,C,D,D]	*	*>[A,B,B1,B,B2,C,C,D,D]	*>[A,B,B1,B,B2,C,C,D,D]	*	*>[A,B,B1,B,B2,C,C,D,D]	*>[A,B,B1,B,B2,C,C,D,D]	*	*>[A,B,B1,B,B2,C,C,D,D]	*	*>[A,B,B1,B,B2,C,C,D,D]	*>[A,B,B1,B,B2,C,C,D,D]	*>[A,B,B1,B,B2,C,C,D,D]
=1	=1	=1	=1	=1	=1	=1	=1	=1	=1	=1	=1	=1	=1	=1
*>A	*	*>A	*	*>A	*>A	*	*>A	*>A	*	*>A	*	*>A	*>A	*>A
!	!	!	!	!	!	!	!LO:TX:t=P:problem=zgodnie z RISM "Brak fl 2, cor 2"	!	!	!LO:TX:a:t=in A	!	!	!LO:TX:t=P:problem=zgodnie z RISM "Brak fl 2, cor 2"	!LO:TX:a:t=3
!	!LO:DY:rj	!	!	!	!	!LO:DY:rj	!	!	!LO:DY:rj	!	!LO:DY:rj	!	!	!
4.AA/	ff	4.c#/ 4.e	.	4.a/	4.e/	ff	4.ryy	4.a\	ff	4.c#/	ff	4.a\	4.ryy	4.r
=2	=2	=2	=2	=2	=2	=2	=2	=2	=2	=2	=2	=2	=2	=2
4.AA/	.	4.c#/ 4.e	.	4.a/	4.e/	.	4.ryy	4.a\	.	4.c#/	.	4.a\	4.ryy	4.r
=3	=3	=3	=3	=3	=3	=3	=3	=3	=3	=3	=3	=3	=3	=3
*tremolo	*	*tremolo	*	*tremolo	*tremolo	*	*	*tremolo	*	*tremolo	*	*tremolo	*	*
8AA/L	.	8c#/ 8eL	.	8a/L	8e/L	.	4.ryy	8a\L	.	8c#/L	.	8a\L	4.ryy	4.r
8AA/	.	8c#/ 8e	.	8a/	8e/	.	.	8a\	.	8c#/	.	8a\	.	.
8AA/J	.	8c#/ 8eJ	.	8a/J	8e/J	.	.	8a\J	.	8c#/J	.	8a\J	.	.
*Xtremolo	*	*Xtremolo	*	*Xtremolo	*Xtremolo	*	*	*Xtremolo	*	*Xtremolo	*	*Xtremolo	*	*
=4	=4	=4	=4	=4	=4	=4	=4	=4	=4	=4	=4	=4	=4	=4
4AA/	.	4c#/ 4e	.	4a/	4e/	.	4.ryy	4a\	.	4c#/	.	4a\	4.ryy	4r
8r	.	8r	.	16d/LL	8r	.	.	8r	.	8r	.	8r	.	16ee\LL
.	.	.	.	16a/JJ	.	.	.	.	.	.	.	.	.	16aa\JJ
=5!|:	=5!|:	=5!|:	=5!|:	=5!|:	=5!|:	=5!|:	=5!|:	=5!|:	=5!|:	=5!|:	=5!|:	=5!|:	=5!|:	=5!|:
*>B	*	*>B	*	*>B	*>B	*	*>B	*>B	*	*>B	*	*>B	*>B	*>B
!	!LO:DY:rj	!	!	!	!	!	!	!	!	!	!	!	!	!
4E\	p	8r	.	(8a/L	8r	.	4.ryy	8r	.	8r	.	8r	4.ryy	(8aa\L
!	!	!	!LO:DY:rj	!	!	!	!	!	!	!	!LO:DY:rj	!	!	!
.	.	8B/L 8d	p	8g#/J)	8e/L	.	.	8b\L	p	8d/L	p	8g#X/L	.	8gg#\J)
8r	.	8B/J 8d	.	16e/LL	8e/J	.	.	8b\J	.	8d/J	.	8g#/J	.	(16ee\LL
.	.	.	.	16b/JJ	.	.	.	.	.	.	.	.	.	16bb\JJ)
=6	=6	=6	=6	=6	=6	=6	=6	=6	=6	=6	=6	=6	=6	=6
4A\	.	8r	.	8b/L	8r	.	4.ryy	8r	.	8r	.	8r	4.ryy	(8bb\L
.	.	8c#/L 8e	.	8a/J	8e/L	.	.	8a\L	.	8c#/L	.	8a/L	.	8aa\J)
8r	.	8c#/J 8e	.	16e/LL	8e/J	.	.	8a\J	.	8c#/J	.	8a/J	.	(16ee\LL
.	.	.	.	16cc#/JJ	.	.	.	.	.	.	.	.	.	16ccc#\JJ)
=7	=7	=7	=7	=7	=7	=7	=7	=7	=7	=7	=7	=7	=7	=7
4E\	.	8r	.	8cc#\L	8r	.	4.ryy	8r	.	8r	.	8r	4.ryy	(8ccc#\L
.	.	8B/L 8d	.	8b\J	8e/L	.	.	8b\L	.	8d/L	.	8g#/L	.	8bb\J)
!	!	!	!	!LO:TUP:b	!	!	!	!	!	!	!	!	!	!LO:TUP:a:problem=klamra łukowa
8r	.	8B/J 8d	.	24g#/LL	8e/J	.	.	8b\J	.	8d/J	.	8g#/J	.	24gg#\LL
.	.	.	.	24b/	.	.	.	.	.	.	.	.	.	24bb\
.	.	.	.	24dd/JJ	.	.	.	.	.	.	.	.	.	24ddd\JJ
!	!	!LO:LB:g=original	!	!LO:LB:g=original	!	!	!	!LO:LB:g=original	!	!	!	!	!	!LO:LB:g=original
=8	=8	=8	=8	=8	=8	=8	=8	=8	=8	=8	=8	=8	=8	=8
4A\	.	8r	.	8ff#\L	8r	.	4.ryy	8r	.	8r	.	8r	4.ryy	(8fff#\L
.	.	8c#/L 8e	.	8ee\J	8e/L	.	.	8a\L	.	8c#/L	.	8a/L	.	8eee\J)
8r	.	8c#/J 8e	.	(16e/LL	8e/J	.	.	8a\J	.	8c#/J	.	8a/J	.	(16ee\LL
.	.	.	.	16a/JJ)	.	.	.	.	.	.	.	.	.	16aa\JJ)
!LO:LB:g=original	!	!	!	!	!	!	!	!	!	!	!	!	!	!
=9	=9	=9	=9	=9	=9	=9	=9	=9	=9	=9	=9	=9	=9	=9
4E\	.	8r	.	(8a/L	8r	.	4.ryy	8r	.	8r	.	8r	4.ryy	(8aa\L
.	.	8B/L 8d	.	8g#/J)	8e/L	.	.	8b\L	.	8d/L	.	8g#/L	.	8gg#\J)
8r	.	8B/J 8d	.	(16e/LL	8e/J	.	.	8b\J	.	8d/J	.	8g#/J	.	(16ee\LL
.	.	.	.	16b/JJ)	.	.	.	.	.	.	.	.	.	16bb\JJ)
!	!	!	!	!	!	!	!	!	!	!LO:LB:g=original	!	!LO:LB:g=original	!	!
=10	=10	=10	=10	=10	=10	=10	=10	=10	=10	=10	=10	=10	=10	=10
4A\	.	8r	.	(8b\L	8r	.	4.ryy	8r	.	8r	.	8r	4.ryy	8bb\L
.	.	8c#/L 8e	.	8a\J)	8e/L	.	.	8a\L	.	8c#/L	.	8a\L	.	8aa\J
!	!	!	!	!LO:TUP:a:problem=klamra łukowa	!	!	!	!	!	!	!	!	!	!LO:TUP:a:problem=klamra łukowa
8r	.	8c#/J 8e	.	24cc#\LL	8e/J	.	.	8a\J	.	8c#/J	.	8a\J	.	24ccc#\LL
.	.	.	.	24ee\	.	.	.	.	.	.	.	.	.	24eee\
.	.	.	.	24aa\JJ	.	.	.	.	.	.	.	.	.	24aaa\JJ
=11	=11	=11	=11	=11	=11	=11	=11	=11	=11	=11	=11	=11	=11	=11
4E\	.	8r	.	8.ff#\L	8r	.	4.ryy	8r	.	8r	.	8r	4.ryy	8.fff#\L
.	.	8B/L 8d	.	.	8e/L	.	.	8b\L	.	8d/L	.	8g#\L	.	.
.	.	.	.	16dd\L	.	.	.	.	.	.	.	.	.	16ddd\L
8r	.	8B/J 8d	.	16b\	8e/J	.	.	8b\J	.	8d/J	.	8g#\J	.	16bb\
.	.	.	.	16g#\JJ	.	.	.	.	.	.	.	.	.	16gg#\JJ
=12	=12	=12	=12	=12	=12	=12	=12	=12	=12	=12	=12	=12	=12	=12
!LO:TX:a:t=1ma	!	!LO:TX:a:t=1mo	!	!LO:TX:a:t=1ma	!	!	!	!	!	!	!	!	!	!LO:TX:a:t=1ma
*>B1	*	*>B1	*	*>B1	*>B1	*	*>B1	*>B1	*	*>B1	*	*>B1	*>B1	*>B1
4AA/	.	4c#/ 4e	.	4a/	4e/	.	4.ryy	4a\	.	4c#/	.	4a\	4.ryy	4aa\
8r	.	8r	.	16e/LL	8r	.	.	8r	.	8r	.	8r	.	16ee\LL
.	.	.	.	16a/JJ	.	.	.	.	.	.	.	.	.	16aa\JJ
=13:|!	=13:|!	=13:|!	=13:|!	=13:|!	=13:|!	=13:|!	=13:|!	=13:|!	=13:|!	=13:|!	=13:|!	=13:|!	=13:|!	=13:|!
!LO:TX:a:t=2da	!	!	!	!	!	!	!	!	!	!	!	!	!	!
*>B2	*	*>B2	*	*>B2	*>B2	*	*>B2	*>B2	*	*>B2	*	*>B2	*>B2	*>B2
!LO:TX:t=P:problem=brak 2 volty	!	!LO:TX:a:t=2do	!	!LO:TX:a:t=2da	!LO:TX:t=P:problem=brak 2 volty	!	!	!LO:TX:t=P:problem=brak 2 volty	!	!LO:TX:t=P:problem=brak 2 volty	!	!LO:TX:t=P:problem=brak 2 volty	!	!LO:TX:a:t=2da
4.ryy	.	4c#/ 4e	.	4a/	4.ryy	.	4.ryy	4.ryy	.	4.ryy	.	4.ryy	4.ryy	4aa\
.	.	8r	.	8ee\	.	.	.	.	.	.	.	.	.	8ee\
!	!	!	!	!	!	!	!	!	!	!	!	!	!	!LO:LB:g=original
=14!|:	=14!|:	=14!|:	=14!|:	=14!|:	=14!|:	=14!|:	=14!|:	=14!|:	=14!|:	=14!|:	=14!|:	=14!|:	=14!|:	=14!|:
*>C	*	*>C	*	*>C	*>C	*	*>C	*>C	*	*>C	*	*>C	*>C	*>C
*	*	*	*	*	*tremolo	*	*	*tremolo	*	*tremolo	*	*tremolo	*	*
!	!	!	!	!	!	!	!	!	!LO:DY:rj	!	!LO:DY:rj	!	!	!
4E\	.	8r	.	8bb|>\L	8e/L	.	4.ryy	8b\L	ff	8e/L	f	8g#\L	4.ryy	8bb\L
.	.	8g#\L 8b	.	(16aa#X\L	8e/	.	.	8b\	.	8e/	.	8g#\	.	(16aa#X\L
.	.	.	.	16bb\	.	.	.	.	.	.	.	.	.	16bb\
8r	.	8g#\J 8b	.	16ccc#\	8e/J	.	.	8b\J	.	8e/J	.	8g#\J	.	16ccc#\
.	.	.	.	16bb\JJ)	.	.	.	.	.	.	.	.	.	16bb\JJ)
*	*	*	*	*	*Xtremolo	*	*	*Xtremolo	*	*Xtremolo	*	*Xtremolo	*	*
!	!	!	!	!LO:LB:g=original	!LO:LB:g=original	!	!	!	!	!	!	!	!	!
=15	=15	=15	=15	=15	=15	=15	=15	=15	=15	=15	=15	=15	=15	=15
8E\	.	8g#\ 8b	.	8eee\	8e/	.	4.ryy	8b\	.	8g#\	.	8ee\	4.ryy	8eee\
4E\	.	4g#\ 4b	.	4ee\	4e/	.	.	4b\	.	4g#\	.	4ee\	.	4ee\
!	!	!LO:LB:g=original	!	!	!	!	!	!	!	!	!	!	!	!
=16	=16	=16	=16	=16	=16	=16	=16	=16	=16	=16	=16	=16	=16	=16
4A\	.	8r	.	8ff#'\L	8r	.	4.ryy	8r	.	8r	.	8r	4.ryy	8ff#'\L
.	.	8c#/L 8f#	.	(16ee#X\L	8c#/L	.	.	8a\L	.	8f#\L	.	8a\L	.	(16ee#X\L
.	.	.	.	16ff#\	.	.	.	.	.	.	.	.	.	16ff#\
8r	.	8c#/J 8f#	.	16gg#\	8c#/J	.	.	8a\J	.	8f#\J	.	8a\J	.	16gg#\
.	.	.	.	16ff#\JJ)	.	.	.	.	.	.	.	.	.	16ff#\JJ)
=17	=17	=17	=17	=17	=17	=17	=17	=17	=17	=17	=17	=17	=17	=17
4F#\	.	8f#/ 8a	.	8aa\	8c#/	.	4.ryy	8a\	.	8a\	.	8cc#\	4.ryy	8aa\
.	.	4f#/ 4a	.	4cc#\	4c#/	.	.	4a\	.	4a\	.	4cc#\	.	4cc#\
8r	.	.	.	.	.	.	.	.	.	.	.	.	.	.
=18	=18	=18	=18	=18	=18	=18	=18	=18	=18	=18	=18	=18	=18	=18
!	!	!	!	!	!LO:TX:a:t=4	!	!	!	!	!	!	!	!	!
!	!	!	!	!	!LO:N:vis=00	!	!	!	!	!	!	!	!	!
4BB/	.	8r	.	16b\LL	1.r	.	4.ryy	8r	.	8r	.	8r	4.ryy	16b\LL
.	.	.	.	16cc#\	.	.	.	.	.	.	.	.	.	16cc#\
.	.	8a/L 8b	.	16dd#X\	.	.	.	8b\L	.	8a\L	.	8dd#X\L	.	16dd#X\
.	.	.	.	16ee\	.	.	.	.	.	.	.	.	.	16ee\
8r	.	8a/J 8b	.	16ff#\	.	.	.	8b\J	.	8a\J	.	8dd#\J	.	16ff#\
.	.	.	.	16gg#\JJ	.	.	.	.	.	.	.	.	.	16gg#\JJ
!	!	!	!	!	!	!	!	!LO:LB:g=original	!	!	!	!	!	!
=19	=19	=19	=19	=19	=19	=19	=19	=19	=19	=19	=19	=19	=19	=19
4BB/	.	8r	.	16aa\LL	.	.	4.ryy	8r	.	8r	.	8r	4.ryy	16aa\LL
.	.	.	.	16bb\JJ	.	.	.	.	.	.	.	.	.	16bb\JJ
.	.	8a/L 8b	.	8.ccc#\L	.	.	.	8b\L	.	8a\L	.	8dd#X\L	.	8.ccc#\L
8r	.	8a/J 8b	.	.	.	.	.	8b\J	.	8a\J	.	8dd#\J	.	.
.	.	.	.	16bb\Jk	.	.	.	.	.	.	.	.	.	16bb\Jk
=20	=20	=20	=20	=20	=20	=20	=20	=20	=20	=20	=20	=20	=20	=20
*	*	*tremolo	*	*	*	*	*	*	*	*	*	*	*	*
4BB/	.	8a/ 8bL	.	16ddd#X\LL	.	.	4.ryy	8r	.	8r	.	8r	4.ryy	16ddd#X\LL
.	.	.	.	16ccc#\	.	.	.	.	.	.	.	.	.	16ccc#\
.	.	8a/ 8b	.	16bb\	.	.	.	8b\L	.	8a\L	.	8dd#X\L	.	16bb\
.	.	.	.	16aa\	.	.	.	.	.	.	.	.	.	16aa\
8r	.	8a/ 8bJ	.	16gg#\	.	.	.	8b\J	.	8a\J	.	8dd#\J	.	16gg#\
.	.	.	.	16ff#\JJ	.	.	.	.	.	.	.	.	.	16ff#\JJ
*	*	*Xtremolo	*	*	*	*	*	*	*	*	*	*	*	*
!LO:LB:g=original	!	!	!	!LO:LB:g=original	!	!	!	!	!	!	!	!	!	!LO:LB:g=original
=21	=21	=21	=21	=21	=21	=21	=21	=21	=21	=21	=21	=21	=21	=21
8E\	.	8r	.	4ff##X\	.	.	4.ryy	8r	.	8r	.	8r	4.ryy	4ff##X\
8r	.	8B/L 8g#	.	.	.	.	.	8b\L	.	8g#\L	.	8b\L	.	.
8r	.	8B/J 8g#	.	8gg#\	.	.	.	8b\J	.	8g#\J	.	8b\J	.	8gg#\
!	!	!	!	!	!	!	!	!	!	!	!	!LO:LB:g=original	!	!
=22	=22	=22	=22	=22	=22	=22	=22	=22	=22	=22	=22	=22	=22	=22
*	*	*	*	*	*tremolo	*	*	*tremolo	*	*	*	*	*	*
8E\	.	8r	.	8bb\L	8e/L	.	4.ryy	8b\L	.	8r	.	8r	4.ryy	8bb\L
8r	.	8g#/L 8b	.	16aa#X\L	8e/	.	.	8b\	.	8g#\L	.	8b\L	.	16aa#X\L
.	.	.	.	16bb\	.	.	.	.	.	.	.	.	.	16bb\
8r	.	8g#/J 8b	.	16ccc#\	8e/J	.	.	8b\J	.	8g#\J	.	8b\J	.	16ccc#\
.	.	.	.	16bb\JJ	.	.	.	.	.	.	.	.	.	16bb\JJ
*	*	*	*	*	*Xtremolo	*	*	*Xtremolo	*	*	*	*	*	*
!	!	!	!	!	!	!	!	!	!	!LO:LB:g=original	!	!	!	!
=23	=23	=23	=23	=23	=23	=23	=23	=23	=23	=23	=23	=23	=23	=23
4E\	.	8g#/ 8b	.	8eee\	8e/	.	4.ryy	8b\	.	8g#\	.	8ee\	4.ryy	8eee\
.	.	4g#/ 4b	.	4ee\	4e/	.	.	4b\	.	4g#\	.	4ee\	.	4ee\
8r	.	.	.	.	.	.	.	.	.	.	.	.	.	.
=24	=24	=24	=24	=24	=24	=24	=24	=24	=24	=24	=24	=24	=24	=24
4A\	.	8r	.	8ff#\L	8r	.	4.ryy	8r	.	8r	.	8r	4.ryy	8ff#\L
.	.	8c#/L 8f#	.	16ee#X\L	8c#/L	.	.	8a\L	.	8f#\L	.	8a/L	.	16ee#X\L
.	.	.	.	16ff#\	.	.	.	.	.	.	.	.	.	16ff#\
8r	.	8c#/J 8f#	.	16gg#\	8c#/J	.	.	8a\J	.	8f#\J	.	8a/J	.	16gg#\
.	.	.	.	16ff#\JJ	.	.	.	.	.	.	.	.	.	16ff#\JJ
!	!	!LO:LB:g=original	!	!	!	!	!	!	!	!	!	!	!	!
=25	=25	=25	=25	=25	=25	=25	=25	=25	=25	=25	=25	=25	=25	=25
4F#\	.	8f#/ 8a	.	8aa\	8c#/	.	4.ryy	8a\	.	8a\	.	8cc#\	4.ryy	8aa\
.	.	4f#/ 4a	.	4cc#\	4c#/	.	.	4a\	.	4a\	.	4cc#\	.	4cc#\
8r	.	.	.	.	.	.	.	.	.	.	.	.	.	.
=26	=26	=26	=26	=26	=26	=26	=26	=26	=26	=26	=26	=26	=26	=26
!	!	!	!	!	!LO:TX:a:t=4	!	!	!	!	!	!	!	!	!
!	!	!	!	!	!LO:N:vis=00	!	!	!	!	!	!	!	!	!
4BB/	.	8r	.	16b\LL	1.r	.	4.ryy	8r	.	8r	.	8r	4.ryy	16b\LL
.	.	.	.	16cc#\	.	.	.	.	.	.	.	.	.	16cc#\
.	.	8a/L 8b	.	16dd#X\	.	.	.	8b\L	.	8a\L	.	8dd#X\L	.	16dd#X\
.	.	.	.	16ee\	.	.	.	.	.	.	.	.	.	16ee\
8r	.	8a/J 8b	.	16ff#\	.	.	.	8b\J	.	8a\J	.	8dd#\J	.	16ff#\
.	.	.	.	16gg#\JJ	.	.	.	.	.	.	.	.	.	16gg#\JJ
=27	=27	=27	=27	=27	=27	=27	=27	=27	=27	=27	=27	=27	=27	=27
4BB/	.	8r	.	16aa\LL	.	.	4.ryy	8r	.	8r	.	8r	4.ryy	16aa\LL
.	.	.	.	16bb\JJ	.	.	.	.	.	.	.	.	.	16bb\JJ
.	.	8a/L 8b	.	8ccc#\	.	.	.	8b\L	.	8a\L	.	8dd#X\L	.	8ccc#\
8r	.	8a/J 8b	.	8r	.	.	.	8b\J	.	8a\J	.	8dd#\J	.	8r
!	!	!	!	!LO:LB:g=original	!	!	!	!	!	!	!	!	!	!LO:LB:g=original
=28	=28	=28	=28	=28	=28	=28	=28	=28	=28	=28	=28	=28	=28	=28
*	*	*	*	*	*	*	*	*tremolo	*	*tremolo	*	*tremolo	*	*
4BB/	.	8r	.	16ddd#X\LL	.	.	4.ryy	8b\L	.	8a\L	.	8dd#X\L	4.ryy	16ddd#X\LL
.	.	.	.	16ccc#\	.	.	.	.	.	.	.	.	.	16ccc#\
.	.	8a/L 8b	.	16bb\	.	.	.	8b\	.	8a\	.	8dd#X\	.	16bb\
.	.	.	.	16aa\	.	.	.	.	.	.	.	.	.	16aa\
8r	.	8a/J 8b	.	16gg#\	.	.	.	8b\J	.	8a\J	.	8dd#X\J	.	16gg#\
.	.	.	.	16ff#\JJ	.	.	.	.	.	.	.	.	.	16ff#\JJ
*	*	*	*	*	*	*	*	*Xtremolo	*	*Xtremolo	*	*Xtremolo	*	*
!	!	!	!	!	!	!	!	!LO:LB:g=original	!	!	!	!	!	!
=29	=29	=29	=29	=29	=29	=29	=29	=29	=29	=29	=29	=29	=29	=29
4E\	.	4g#/ 4b	.	4ee\	.	.	4.ryy	4b\	.	4g#\	.	4ee\	4.ryy	4ee\
8r	.	8r	.	(16e/LL	.	.	.	8r	.	8r	.	8r	.	(16ee\LL
.	.	.	.	16a/JJ)	.	.	.	.	.	.	.	.	.	16aa\JJ)
=30	=30	=30	=30	=30	=30	=30	=30	=30	=30	=30	=30	=30	=30	=30
4E\	.	8r	.	(8a/L	8r	.	4.ryy	8r	.	8r	.	8r	4.ryy	(8aa\L
.	.	8B/L 8d	.	8g#/J)	8e/L	.	.	8b\L	.	8d/L	.	8g#X/L	.	8gg#\J)
8r	.	8B/J 8d	.	(16e/LL	8e/J	.	.	8b\J	.	8d/J	.	8g#/J	.	(16ee\LL
.	.	.	.	16b/JJ)	.	.	.	.	.	.	.	.	.	16bb\JJ)
=31	=31	=31	=31	=31	=31	=31	=31	=31	=31	=31	=31	=31	=31	=31
4A\	.	8r	.	(8b/L	8r	.	4.ryy	8r	.	8r	.	8r	4.ryy	(8bb\L
.	.	8c#/L 8e	.	8a/J)	8e/L	.	.	8a\L	.	8c#/L	.	8a/L	.	8aa\J)
8r	.	8c#/J 8e	.	(16e/LL	8e/J	.	.	8a\J	.	8c#/J	.	8a/J	.	(16ee\LL
.	.	.	.	16cc#/JJ)	.	.	.	.	.	.	.	.	.	16ccc#\JJ)
!LO:LB:g=original	!	!	!	!	!	!	!	!	!	!	!	!	!	!
=32	=32	=32	=32	=32	=32	=32	=32	=32	=32	=32	=32	=32	=32	=32
4E\	.	8r	.	(8cc#\L	8r	.	4.ryy	8r	.	8r	.	8r	4.ryy	8ccc#\L
.	.	8B/L 8d	.	8b\J)	8e/L	.	.	8b\L	.	8d/L	.	8g#/L	.	8bb\J
!	!	!	!	!LO:TUP:b	!	!	!	!	!	!	!	!	!	!LO:TUP:a
8r	.	8B/J 8d	.	24g#/LL	8e/J	.	.	8b\J	.	8d/J	.	8g#/J	.	24gg#\LL
.	.	.	.	24b/	.	.	.	.	.	.	.	.	.	24bb\
.	.	.	.	24dd/JJ	.	.	.	.	.	.	.	.	.	24ddd\JJ
=33	=33	=33	=33	=33	=33	=33	=33	=33	=33	=33	=33	=33	=33	=33
4A\	.	8r	.	8ff#\L	8r	.	4.ryy	8r	.	8r	.	8r	4.ryy	8fff#\L
.	.	8c#/L 8e	.	8ee\J	8e/L	.	.	8a\L	.	8c#/L	.	8a/L	.	8eee\J
8r	.	8c#/J 8e	.	(16e/LL	8e/J	.	.	8a\J	.	8c#/J	.	8a/J	.	(16ee\LL
.	.	.	.	16a/JJ)	.	.	.	.	.	.	.	.	.	16aa\JJ)
!	!	!LO:LB:g=original	!	!	!	!	!	!	!	!	!	!LO:LB:g=original	!	!LO:LB:g=original
=34	=34	=34	=34	=34	=34	=34	=34	=34	=34	=34	=34	=34	=34	=34
4E\	.	8r	.	(8a/L	8r	.	4.ryy	8r	.	8r	.	8r	4.ryy	(8aa\L
.	.	8B/L 8d	.	8g#/J)	8e/L	.	.	8b\L	.	8d/L	.	8g#/L	.	8gg#\J)
8r	.	8B/J 8d	.	(16e/LL	8e/J	.	.	8b\J	.	8d/J	.	8g#/J	.	(16ee\LL
.	.	.	.	16b/JJ)	.	.	.	.	.	.	.	.	.	16bb\JJ)
!	!	!	!	!LO:LB:g=original	!	!	!	!	!	!LO:LB:g=original	!	!	!	!
=35	=35	=35	=35	=35	=35	=35	=35	=35	=35	=35	=35	=35	=35	=35
4A\	.	8r	.	8b\L	8r	.	4.ryy	8r	.	8r	.	8r	4.ryy	(8bb\L
.	.	8c#/L 8e	.	8a\J	8e/L	.	.	8a\L	.	8c#/L	.	8a/L	.	8aa\J)
!	!	!	!	!LO:TUP:a	!	!	!	!	!	!	!	!	!	!LO:TUP:a
8r	.	8c#/J 8e	.	24cc#\LL	8e/J	.	.	8a\J	.	8c#/J	.	8a/J	.	24ccc#\LL
.	.	.	.	24ee\	.	.	.	.	.	.	.	.	.	24eee\
.	.	.	.	24aa\JJ	.	.	.	.	.	.	.	.	.	24aaa\JJ
!	!	!	!	!	!LO:LB:g=original	!	!	!	!	!	!	!	!	!
=36	=36	=36	=36	=36	=36	=36	=36	=36	=36	=36	=36	=36	=36	=36
4E\	.	8r	.	8.ff#\L	8r	.	4.ryy	8r	.	8r	.	8r	4.ryy	8.fff#\L
.	.	8B/L 8d	.	.	8e/L	.	.	8b\L	.	8d/L	.	8g#/L	.	.
.	.	.	.	16dd\L	.	.	.	.	.	.	.	.	.	16ddd\L
8r	.	8B/J 8d	.	16b\	8e/J	.	.	8b\J	.	8d/J	.	8g#/J	.	16bb\
.	.	.	.	16g#\JJ	.	.	.	.	.	.	.	.	.	16gg#\JJ
=37	=37	=37	=37	=37	=37	=37	=37	=37	=37	=37	=37	=37	=37	=37
4AA/	.	4c#/ 4e	.	4a/	4e/	.	4.ryy	4a\	.	4c#/	.	4a/	4.ryy	4aa\
8r	.	8r	.	8ee\	8r	.	.	8r	.	8r	.	8r	.	8eee\
=38:|!|:	=38:|!|:	=38:|!|:	=38:|!|:	=38:|!|:	=38:|!|:	=38:|!|:	=38:|!|:	=38:|!|:	=38:|!|:	=38:|!|:	=38:|!|:	=38:|!|:	=38:|!|:	=38:|!|:
*>D	*	*>D	*	*>D	*>D	*	*>D	*>D	*	*>D	*	*>D	*>D	*>D
!	!	!	!	!	!LO:TX:a:t=16	!	!	!LO:TX:a:t=16	!	!LO:TX:a:t=6	!	!LO:TX:a:t=Sol	!	!LO:TX:a:t=Solo
!	!	!	!	!	!	!	!	!LO:N:vis=00	!	!LO:N:vis=00	!	!	!	!
4A\	.	8r	.	8r	4.r	.	4.ryy	1.r	.	1.r	.	8e/L	4.ryy	8ee\L
.	.	8c#/L 8e	.	8a\L	.	.	.	.	.	.	.	8a/	.	8aa\
8r	.	8c#/J 8e	.	8a\J	.	.	.	.	.	.	.	8b/J	.	8bb\J
=39	=39	=39	=39	=39	=39	=39	=39	=39	=39	=39	=39	=39	=39	=39
4F#\	.	8r	.	8r	4.r	.	4.ryy	.	.	.	.	4.cc#\	4.ryy	4.ccc#\
.	.	8c#/L 8e	.	8a#X\L	.	.	.	.	.	.	.	.	.	.
8r	.	8c#/J 8e	.	8a#\J	.	.	.	.	.	.	.	.	.	.
=40	=40	=40	=40	=40	=40	=40	=40	=40	=40	=40	=40	=40	=40	=40
4B\	.	8r	.	8r	4.r	.	4.ryy	.	.	.	.	8ee\L	4.ryy	8eee\L
.	.	8d/L	.	8f#\L 8b	.	.	.	.	.	.	.	8dd\	.	8ddd\
8r	.	8d/J	.	8f#\J 8b	.	.	.	.	.	.	.	8cc#\J	.	8ccc#\J
!	!	!	!	!	!	!	!	!	!	!	!	!	!	!LO:LB:g=original
=41	=41	=41	=41	=41	=41	=41	=41	=41	=41	=41	=41	=41	=41	=41
4G#\	.	8r	.	8r	4.r	.	4.ryy	.	.	.	.	4.b\	4.ryy	4.bb\
.	.	8d/L	.	8e\L 8b	.	.	.	.	.	.	.	.	.	.
8r	.	8d/J	.	8e\J 8b	.	.	.	.	.	.	.	.	.	.
=42	=42	=42	=42	=42	=42	=42	=42	=42	=42	=42	=42	=42	=42	=42
!	!	!	!	!	!	!	!	!LO:N:vis=00	!	!LO:N:vis=0	!	!	!	!
4A\	.	8r	.	8r	4.r	.	4.ryy	1.r	.	2.r	.	8cc#\L	4.ryy	8ccc#\L
.	.	8c#/L 8e	.	8a\L	.	.	.	.	.	.	.	8b\	.	8bb\
8r	.	8c#/J 8e	.	8a\J	.	.	.	.	.	.	.	8a\J	.	8aa\J
!	!	!LO:LB:g=original	!	!	!	!	!	!	!	!	!	!	!	!
=43	=43	=43	=43	=43	=43	=43	=43	=43	=43	=43	=43	=43	=43	=43
4B\	.	8r	.	8r	4.r	.	4.ryy	.	.	.	.	8f#\L	4.ryy	8ff#\L
.	.	8d#X/L	.	8B\L 8a	.	.	.	.	.	.	.	8cc#\	.	8ccc#\
8r	.	8d#/J	.	8B\J 8a	.	.	.	.	.	.	.	8b\J	.	8bb\J
!	!	!	!	!LO:LB:g=original	!	!	!	!	!	!	!	!LO:LB:g=original	!	!
=44	=44	=44	=44	=44	=44	=44	=44	=44	=44	=44	=44	=44	=44	=44
.	.	.	.	16qqee/	.	.	.	.	.	.	.	.	.	.
8E\	.	8B/ 8g#	.	8eee\L	4.r	.	4.ryy	.	.	8g#\	.	8ee\	4.ryy	8eee\L
8r	.	8r	.	16gg#\L	.	.	.	.	.	8r	.	8r	.	16gg#\L
.	.	.	.	16gg#\J	.	.	.	.	.	.	.	.	.	16gg#\J
8B\	.	8B/ 8a	.	8bb\J	.	.	.	.	.	8a\	.	8dd#X\	.	8bb\J
=45	=45	=45	=45	=45	=45	=45	=45	=45	=45	=45	=45	=45	=45	=45
!	!	!	!	!	!	!	!	!	!	!	!	!	!	!LO:N:xstem
4E\	.	4B/ 4g#	.	4ee\	4.r	.	4.ryy	.	.	4g#\	.	4ee\	4.ryy	4ee\
8r	.	8r	.	8r	.	.	.	.	.	8r	.	8r	.	8r
!LO:LB:g=original	!	!	!	!	!	!	!	!	!	!	!	!	!	!
=46	=46	=46	=46	=46	=46	=46	=46	=46	=46	=46	=46	=46	=46	=46
!	!	!	!	!	!	!	!	!	!	!LO:TX:a:t=6	!	!	!	!
!	!	!	!	!	!	!	!	!LO:N:vis=00	!	!LO:N:vis=00	!	!	!	!
4A\	.	8r	.	8r	4.r	.	4.ryy	1.r	.	1.r	.	8e/L	4.ryy	8ee\L
.	.	8c#/L 8e	.	8a\L	.	.	.	.	.	.	.	8a/	.	8aa\
8r	.	8c#/J 8e	.	8a\J	.	.	.	.	.	.	.	8b/J	.	8bb\J
=47	=47	=47	=47	=47	=47	=47	=47	=47	=47	=47	=47	=47	=47	=47
4F#\	.	8r	.	8r	4.r	.	4.ryy	.	.	.	.	4.cc#\	4.ryy	4.ccc#\
.	.	8c#/L 8e	.	8a#X\L	.	.	.	.	.	.	.	.	.	.
8r	.	8c#/J 8e	.	8a#\J	.	.	.	.	.	.	.	.	.	.
=48	=48	=48	=48	=48	=48	=48	=48	=48	=48	=48	=48	=48	=48	=48
4B\	.	8r	.	8r	4.r	.	4.ryy	.	.	.	.	8ee\L	4.ryy	8eee\L
.	.	8d/L	.	8f#\L 8b	.	.	.	.	.	.	.	8ddn\	.	8ddd\
8r	.	8d/J	.	8f#\J 8b	.	.	.	.	.	.	.	8cc#\J	.	8ccc#\J
=49	=49	=49	=49	=49	=49	=49	=49	=49	=49	=49	=49	=49	=49	=49
4G#\	.	8r	.	8r	4.r	.	4.ryy	.	.	.	.	4.b\	4.ryy	4.bb\
.	.	8d/L	.	8e\L 8b	.	.	.	.	.	.	.	.	.	.
8r	.	8d/J	.	8e\J 8b	.	.	.	.	.	.	.	.	.	.
!	!	!	!	!	!	!	!	!	!	!	!	!	!	!LO:LB:g=original
=50	=50	=50	=50	=50	=50	=50	=50	=50	=50	=50	=50	=50	=50	=50
!	!	!	!	!	!	!	!	!LO:N:vis=00	!	!LO:N:vis=0	!	!	!	!
4A\	.	8r	.	8r	4.r	.	4.ryy	1.r	.	2.r	.	8cc#\L	4.ryy	8ccc#\L
.	.	8c#/L 8e	.	8a\L	.	.	.	.	.	.	.	8b\	.	8bb\
8r	.	8c#/J 8e	.	8a\J	.	.	.	.	.	.	.	8a\J	.	8aa\J
=51	=51	=51	=51	=51	=51	=51	=51	=51	=51	=51	=51	=51	=51	=51
4D\	.	8r	.	8r	4.r	.	4.ryy	.	.	.	.	8.f#/L	4.ryy	8.ff#\L
.	.	8d/L	.	8f#\L 8b	.	.	.	.	.	.	.	.	.	.
.	.	.	.	.	.	.	.	.	.	.	.	16g#/L	.	16gg#\L
8r	.	8d/J	.	8f#\J 8b	.	.	.	.	.	.	.	16a/	.	16aa\
.	.	.	.	.	.	.	.	.	.	.	.	16b/JJ	.	16bb\JJ
!	!	!LO:LB:g=original	!	!	!	!	!	!	!	!	!	!	!	!
=52	=52	=52	=52	=52	=52	=52	=52	=52	=52	=52	=52	=52	=52	=52
*tremolo	*	*	*	*	*	*	*	*	*	*	*	*	*	*
8E\L	.	8c#/L 8e	.	8a\L	4.r	.	4.ryy	.	.	4c#/	.	8e/L	4.ryy	8.ee\L
8E\	.	8c#/ 8e	.	8a\	.	.	.	.	.	.	.	8f#/	.	.
.	.	.	.	.	.	.	.	.	.	.	.	.	.	16ff#\K
8E\J	.	8c#/J 8e	.	8a\J	.	.	.	.	.	8d/	.	8g#X/J	.	8gg#\J
*Xtremolo	*	*	*	*	*	*	*	*	*	*	*	*	*	*
!	!	!	!	!	!	!	!	!	!	!	!	!LO:LB:g=original	!	!
=53	=53	=53	=53	=53	=53	=53	=53	=53	=53	=53	=53	=53	=53	=53
4A\	.	4c#/ 4e	.	4a\	4.r	.	4.ryy	.	.	4c#/	.	4a/	4.ryy	4aa\
8r	.	8r	.	8r	.	.	.	.	.	8r	.	8r	.	8r
=:|!	=:|!	=:|!	=:|!	=:|!	=:|!	=:|!	=:|!	=:|!	=:|!	=:|!	=:|!	=:|!	=:|!	=:|!
*-	*-	*-	*-	*-	*-	*-	*-	*-	*-	*-	*-	*-	*-	*-
!!!system-decoration: [(s1,s2,s3,s4)][(s5,s6,s7)][(s8,s9,s10)]
!!!RDF**kern: < = below
!!!RDF**kern: > = above
!!!RDF**kern: | = vertical stroke
!!!ENC: Andrzej Gręziak
!!!END: 2020-11-06
!!!ENC: Marta Chmielewska
!!!END: 2021-11-02
